media/com_emundus/images/tchoozy/complex-illustrations/digital-testing.svg

<svg xmlns="http://www.w3.org/2000/svg" xml:space="preserve" id="Calque_1" x="0" y="0" style="enable-background:new 0 0 841.9 595.3" version="1.1" viewBox="0 0 841.9 595.3"><style>.st6{fill:#353544}.st8{opacity:.5;fill:#fff;enable-background:new}</style><radialGradient id="SVGID_1_" cx="748.295" cy="2782.093" r="125.826" gradientTransform="matrix(-1 .00035 .00004 .11 1113.483 237.424)" gradientUnits="userSpaceOnUse"><stop offset=".4" style="stop-color:#353544;stop-opacity:.5"/><stop offset="1" style="stop-color:#353544;stop-opacity:0"/></radialGradient><ellipse cx="365.3" cy="545.7" rx="127.8" ry="15.5" style="fill:url(#SVGID_1_)"/><linearGradient id="SVGID_00000038375737702907631800000017771180018492182156_" x1="325.558" x2="540.242" y1="599.896" y2="385.212" gradientTransform="matrix(1 0 0 -1 0 595.89)" gradientUnits="userSpaceOnUse"><stop offset=".1" style="stop-color:#5b5a72"/><stop offset=".5" style="stop-color:#b0b0bf"/><stop offset=".96" style="stop-color:#f4f4f6"/></linearGradient><path d="M468.4 89.9c3-15.9 9.5-20.5 16.2-19.3 6.8 1.3 11.2 7.9 8.2 23.8-2.2 12-7.2 21.7-12.4 25.2l-18.6 99.7c3-16 2.4-31.8-1.1-46.3l10.3-55c-3.7-5.2-4.9-16.1-2.6-28.1z" style="fill:url(#SVGID_00000038375737702907631800000017771180018492182156_)"/><linearGradient id="SVGID_00000008130591437787267760000012975633339439908248_" x1="245.662" x2="460.347" y1="520" y2="305.316" gradientTransform="matrix(1 0 0 -1 0 595.89)" gradientUnits="userSpaceOnUse"><stop offset=".1" style="stop-color:#5b5a72"/><stop offset=".5" style="stop-color:#b0b0bf"/><stop offset=".96" style="stop-color:#f4f4f6"/></linearGradient><path d="M390.8 256.4c22 4.1 44-14 48.9-40.7s-8.9-51.5-31-55.6c-22.1-4.1-44 14.1-49 40.7-4.8 26.6 9 51.4 31.1 55.6zM289.5 139.7c23.3-30.6 62.5-47.2 102.9-39.6s70.9 37.2 81.6 74.1c4.4 15.2 5.4 31.8 2.3 48.4-10.6 56.9-65.5 94.5-122.5 83.9s-94.6-65.5-84-122.4c3.2-16.8 10.1-31.8 19.7-44.4z" style="fill:url(#SVGID_00000008130591437787267760000012975633339439908248_)"/><linearGradient id="SVGID_00000167373718698199118180000016119009301517498794_" x1="322.35" x2="187.566" y1="271.415" y2="136.631" gradientTransform="matrix(1 0 0 -1 0 595.89)" gradientUnits="userSpaceOnUse"><stop offset="0" style="stop-color:#5b5a72"/><stop offset="1" style="stop-color:#b0b0bf"/></linearGradient><path d="M305.6 343c8.8 7.9 6.3 21.7-26.3 51.1-31.7 28.6-61.7 56.1-67.6 51.8-7.8-5.8 11.2-47 44.5-82.3s49.4-20.6 49.4-20.6z" style="fill:url(#SVGID_00000167373718698199118180000016119009301517498794_)"/><linearGradient id="SVGID_00000054962895117843824850000018097569480863769222_" x1="394.86" x2="545.86" y1="332.643" y2="360.643" gradientUnits="userSpaceOnUse"><stop offset="0" style="stop-color:#b0b0bf"/><stop offset=".96" style="stop-color:#f4f4f6"/></linearGradient><path d="m449.7 325.7-13.3 30.7c8 2.3 17.8 4.6 29.4 6.8 42.3 8.2 70.6 4.1 71.9-.9 2.1-8.3-33.9-27.5-82.2-35.8-2-.3-3.9-.5-5.8-.8z" style="fill:url(#SVGID_00000054962895117843824850000018097569480863769222_)"/><linearGradient id="SVGID_00000162317629744520007270000007889190505810268081_" x1="256.998" x2="471.683" y1="531.337" y2="316.652" gradientTransform="matrix(1 0 0 -1 0 595.89)" gradientUnits="userSpaceOnUse"><stop offset=".1" style="stop-color:#5b5a72"/><stop offset=".5" style="stop-color:#b0b0bf"/><stop offset=".96" style="stop-color:#f4f4f6"/></linearGradient><path d="M303.6 83.9c-4.3-5.5-5.9-16.8-3.5-29.3 3.1-16.6 10.6-21.5 18.5-20 7.8 1.5 13.1 8.8 10 25.4-2.3 12.5-8 22.5-14 26.1l-10.5 56.4c-9.6 12.6-16.5 27.7-19.6 44.3l19.1-102.9z" style="fill:url(#SVGID_00000162317629744520007270000007889190505810268081_)"/><path d="M389.1 144.9s-2.8-10.9-12.7-11.3c-10.6-.3-28.1 21.4-28.1 21.4 24.8-20.7 40.8-10.1 40.8-10.1zm47.3 10.9s5-8.3 11.6-5.7c7.1 2.8 12.3 25.9 12.3 25.9-10.3-24.4-23.8-20.2-23.9-20.2z" class="st6"/><path d="M386.9 282.6c-14.2-2.4-12.9-20-12.9-20l31.8 5.5c0 .1-4.4 17.1-18.9 14.5z" style="fill:#5b5a72"/><ellipse cx="359.3" cy="200.4" class="st6" rx="32.5" ry="19.2" transform="rotate(-79.823 359.333 200.441)"/><ellipse cx="365.3" cy="192.8" class="st8" rx="3.1" ry="4.5" transform="rotate(-79.823 365.295 192.828)"/><ellipse cx="360.3" cy="182.4" class="st8" rx="6" ry="6.8" transform="rotate(-79.823 360.293 182.355)"/><ellipse cx="437.8" cy="215.1" class="st6" rx="28.9" ry="15.2" transform="rotate(-78.569 437.793 215.064)"/><ellipse cx="442.9" cy="208.3" class="st8" rx="2.7" ry="3.5" transform="rotate(-78.171 442.905 208.314)"/><ellipse cx="439.2" cy="199" class="st8" rx="5.3" ry="5.4" transform="rotate(-72.681 439.226 198.95)"/><linearGradient id="SVGID_00000099657424101316816220000002472377291189215118_" x1="279.041" x2="448.454" y1="320.438" y2="151.024" gradientTransform="matrix(1 0 0 -1 0 595.89)" gradientUnits="userSpaceOnUse"><stop offset=".1" style="stop-color:#5b5a72"/><stop offset=".5" style="stop-color:#b0b0bf"/><stop offset=".96" style="stop-color:#f4f4f6"/></linearGradient><path d="M295.5 336.1c8 0 12.2 3.6 12.6 4 3.7 3.3 5.6 7.4 5.6 12.1 0 8-5.5 17.8-17.2 30.4l55.7 106.7c5.2 10 18.5 10 22.8 0l75.4-174.6c3.1-7.4-2.6-15.7-9.2-13.3l-52.5 25-4.9 71.8c-.4 5.3-5.1 5.3-5.5 0l-5.9-71.8-100.3-25c-8-2.4-14.8 5.9-11 13.3l14.5 27.7c7-4.2 13.7-6.3 19.9-6.3z" style="fill:url(#SVGID_00000099657424101316816220000002472377291189215118_)"/><g style="opacity:.4"><linearGradient id="SVGID_00000144311807489161066370000008135106831541691580_" x1="-723.612" x2="-532.232" y1="700.262" y2="891.642" gradientTransform="scale(-1 1) rotate(-20.12 -1776.534 271.376)" gradientUnits="userSpaceOnUse"><stop offset="0" style="stop-color:#b0b0bf"/><stop offset="1" style="stop-color:#f4f4f6"/></linearGradient><path d="M437.6 471.4c-8.8-.1-12.9-9.2-8.9-20.4l73.7-201.1c4.1-11.2 13.1-15.5 19.9-9.8L632 331.4c2.4 2 2.5 8.8.1 15.1l-42 114.5c-2.3 6.4-6.7 11.5-9.9 11.5l-142.6-1.1z" style="fill:url(#SVGID_00000144311807489161066370000008135106831541691580_)"/></g><path d="M599 353.6c-3.9 10.7-3.2 21.4 1.6 23.6 4.5 2.1 10.9-4.2 14.6-14.1 3.6-9.9 3.3-20.2-.9-23.2-4.5-3.1-11.4 2.9-15.3 13.7zm-71.2 38.6c-1.7 4.7-.8 9.1 2 9.8 2.7.7 6.2-2.4 7.9-6.9s.9-8.9-1.8-9.8c-2.7-.8-6.4 2.3-8.1 6.9zm-10.3 28.2c-1.7 4.7-.7 8.9 2.2 9.3 2.8.4 6.4-2.9 8.1-7.4 1.7-4.5.8-8.6-2-9.3-2.9-.6-6.6 2.7-8.3 7.4zm-10.3 28.1c-1.7 4.7-.6 8.6 2.4 8.8 2.9.2 6.6-3.4 8.3-7.9s.8-8.4-2.2-8.8-6.8 3.3-8.5 7.9z" style="fill:#b0b0bf"/><path d="m498.2 377.5 25.6 8.1m-44.4-1.6 40.8 11.4m-33.5 13.5 26.6 5.5m-45.9 2.5 42.3 7.2m-34.5 16.2 27.5 2.9m-47.4 6.6 43.9 3.1m16.4-167.6 82.7 54.3M509.8 301l84.3 49.8m-31.3-3.2 27.3 14.4m-29.6 23.2 41 15m-45-4.2 41.7 13.2m-45.6-2.4 42.4 11.4m-46.4-.6 43 9.6m-46.9 1.1 43.7 7.8m-47.7 3 44.4 6m-22.3 7.1 19 1.7" style="fill:none;stroke:#b0b0bf;stroke-width:1.63;stroke-linecap:round;stroke-linejoin:round"/><linearGradient id="SVGID_00000044884545518312280900000014599028897953773499_" x1="-3543.966" x2="-3534.58" y1="8087.877" y2="8097.263" gradientTransform="scale(1 -1) rotate(45.899 8445.062 8834.357)" gradientUnits="userSpaceOnUse"><stop offset=".1" style="stop-color:#5b5a72"/><stop offset=".5" style="stop-color:#b0b0bf"/><stop offset=".96" style="stop-color:#f4f4f6"/></linearGradient><path d="m657.5 282.2-39.8 10.9" style="fill:none;stroke:url(#SVGID_00000044884545518312280900000014599028897953773499_);stroke-width:3;stroke-linecap:round;stroke-linejoin:round"/><linearGradient id="SVGID_00000060026681665836249540000002943446005424943510_" x1="-3274.177" x2="-3247.644" y1="8187.762" y2="8214.286" gradientTransform="scale(1 -1) rotate(49.291 7883.624 8203.481)" gradientUnits="userSpaceOnUse"><stop offset=".1" style="stop-color:#5b5a72"/><stop offset=".5" style="stop-color:#b0b0bf"/><stop offset=".96" style="stop-color:#f4f4f6"/></linearGradient><path d="m632.7 227.6-31.9 37" style="fill:none;stroke:url(#SVGID_00000060026681665836249540000002943446005424943510_);stroke-width:3;stroke-linecap:round;stroke-linejoin:round"/><linearGradient id="SVGID_00000032620292630008416890000017623803884052365482_" x1="585.763" x2="616.19" y1="7248.487" y2="7278.903" gradientTransform="scale(-1 1) rotate(-78.392 -4294.433 4470.886)" gradientUnits="userSpaceOnUse"><stop offset=".1" style="stop-color:#5b5a72"/><stop offset=".5" style="stop-color:#b0b0bf"/><stop offset=".96" style="stop-color:#f4f4f6"/></linearGradient><path d="m566.8 212.3 9.8 47.8" style="fill:none;stroke:url(#SVGID_00000032620292630008416890000017623803884052365482_);stroke-width:3;stroke-linecap:round;stroke-linejoin:round"/></svg>

<?xml version="1.0" encoding="utf-8"?>
<!-- Generator: Adobe Illustrator 27.8.1, SVG Export Plug-In . SVG Version: 6.00 Build 0)  -->
<svg version="1.1" id="Calque_1" xmlns="http://www.w3.org/2000/svg" xmlns:xlink="http://www.w3.org/1999/xlink" x="0px" y="0px"
	 viewBox="0 0 841.9 595.3" style="enable-background:new 0 0 841.9 595.3;" xml:space="preserve">
<style type="text/css">
	.st0{fill:url(#SVGID_1_);}
	.st1{fill:url(#SVGID_00000060719210718808766320000004477604657644980127_);}
	.st2{fill:url(#SVGID_00000142162463180021534180000014094120135116147088_);}
	.st3{fill:url(#SVGID_00000162352163633734330870000008884205265519315897_);}
	.st4{fill:url(#SVGID_00000011724441122773278470000010369517497330256549_);}
	.st5{fill:url(#SVGID_00000132067075688703325580000001236004961568897975_);}
	.st6{fill:#353544;}
	.st7{fill:#5B5A72;}
	.st8{opacity:0.5;fill:#FFFFFF;enable-background:new    ;}
	.st9{fill:url(#SVGID_00000106847781815929131800000008240625200507778997_);}
	.st10{opacity:0.4;}
	.st11{fill:url(#SVGID_00000134969009408069811010000007081730145132553885_);}
	.st12{fill:#B0B0BF;}
	.st13{fill:none;stroke:#B0B0BF;stroke-width:1.63;stroke-linecap:round;stroke-linejoin:round;}
	
		.st14{fill:none;stroke:url(#SVGID_00000149360235527370263820000001517783896452411554_);stroke-width:3;stroke-linecap:round;stroke-linejoin:round;}
	
		.st15{fill:none;stroke:url(#SVGID_00000036211653582818421600000003505894843199735937_);stroke-width:3;stroke-linecap:round;stroke-linejoin:round;}
	
		.st16{fill:none;stroke:url(#SVGID_00000097500753173554883330000012119930393444073875_);stroke-width:3;stroke-linecap:round;stroke-linejoin:round;}
</style>
<radialGradient id="SVGID_1_" cx="748.2947" cy="2782.0935" r="125.8261" gradientTransform="matrix(-1 3.500000e-04 4.000000e-05 0.11 1113.4827 237.4239)" gradientUnits="userSpaceOnUse">
	<stop  offset="0.4" style="stop-color:#353544;stop-opacity:0.5"/>
	<stop  offset="1" style="stop-color:#353544;stop-opacity:0"/>
</radialGradient>
<ellipse class="st0" cx="365.3" cy="545.7" rx="127.8" ry="15.5"/>
<linearGradient id="SVGID_00000038375737702907631800000017771180018492182156_" gradientUnits="userSpaceOnUse" x1="325.5579" y1="599.896" x2="540.2423" y2="385.2117" gradientTransform="matrix(1 0 0 -1 0 595.8898)">
	<stop  offset="0.1" style="stop-color:#5B5A72"/>
	<stop  offset="0.5" style="stop-color:#B0B0BF"/>
	<stop  offset="0.96" style="stop-color:#F4F4F6"/>
</linearGradient>
<path style="fill:url(#SVGID_00000038375737702907631800000017771180018492182156_);" d="M468.4,89.9c3-15.9,9.5-20.5,16.2-19.3
	c6.8,1.3,11.2,7.9,8.2,23.8c-2.2,12-7.2,21.7-12.4,25.2l-18.6,99.7c3-16,2.4-31.8-1.1-46.3l10.3-55
	C467.3,112.8,466.1,101.9,468.4,89.9z"/>
<linearGradient id="SVGID_00000008130591437787267760000012975633339439908248_" gradientUnits="userSpaceOnUse" x1="245.6622" y1="520.0002" x2="460.3466" y2="305.3159" gradientTransform="matrix(1 0 0 -1 0 595.8898)">
	<stop  offset="0.1" style="stop-color:#5B5A72"/>
	<stop  offset="0.5" style="stop-color:#B0B0BF"/>
	<stop  offset="0.96" style="stop-color:#F4F4F6"/>
</linearGradient>
<path style="fill:url(#SVGID_00000008130591437787267760000012975633339439908248_);" d="M390.8,256.4c22,4.1,44-14,48.9-40.7
	s-8.9-51.5-31-55.6c-22.1-4.1-44,14.1-49,40.7C354.9,227.4,368.7,252.2,390.8,256.4L390.8,256.4z M289.5,139.7
	c23.3-30.6,62.5-47.2,102.9-39.6s70.9,37.2,81.6,74.1c4.4,15.2,5.4,31.8,2.3,48.4c-10.6,56.9-65.5,94.5-122.5,83.9
	s-94.6-65.5-84-122.4C273,167.3,279.9,152.3,289.5,139.7L289.5,139.7z"/>
<linearGradient id="SVGID_00000167373718698199118180000016119009301517498794_" gradientUnits="userSpaceOnUse" x1="322.3499" y1="271.415" x2="187.5664" y2="136.6315" gradientTransform="matrix(1 0 0 -1 0 595.8898)">
	<stop  offset="0" style="stop-color:#5B5A72"/>
	<stop  offset="1" style="stop-color:#B0B0BF"/>
</linearGradient>
<path style="fill:url(#SVGID_00000167373718698199118180000016119009301517498794_);" d="M305.6,343c8.8,7.9,6.3,21.7-26.3,51.1
	c-31.7,28.6-61.7,56.1-67.6,51.8c-7.8-5.8,11.2-47,44.5-82.3S305.6,343,305.6,343L305.6,343z"/>
<linearGradient id="SVGID_00000054962895117843824850000018097569480863769222_" gradientUnits="userSpaceOnUse" x1="394.8603" y1="332.6432" x2="545.8603" y2="360.6432">
	<stop  offset="0" style="stop-color:#B0B0BF"/>
	<stop  offset="0.96" style="stop-color:#F4F4F6"/>
</linearGradient>
<path style="fill:url(#SVGID_00000054962895117843824850000018097569480863769222_);" d="M449.7,325.7l-13.3,30.7
	c8,2.3,17.8,4.6,29.4,6.8c42.3,8.2,70.6,4.1,71.9-0.9c2.1-8.3-33.9-27.5-82.2-35.8C453.5,326.2,451.6,326,449.7,325.7L449.7,325.7z"
	/>
<linearGradient id="SVGID_00000162317629744520007270000007889190505810268081_" gradientUnits="userSpaceOnUse" x1="256.9984" y1="531.3365" x2="471.6828" y2="316.6521" gradientTransform="matrix(1 0 0 -1 0 595.8898)">
	<stop  offset="0.1" style="stop-color:#5B5A72"/>
	<stop  offset="0.5" style="stop-color:#B0B0BF"/>
	<stop  offset="0.96" style="stop-color:#F4F4F6"/>
</linearGradient>
<path style="fill:url(#SVGID_00000162317629744520007270000007889190505810268081_);" d="M303.6,83.9c-4.3-5.5-5.9-16.8-3.5-29.3
	c3.1-16.6,10.6-21.5,18.5-20c7.8,1.5,13.1,8.8,10,25.4c-2.3,12.5-8,22.5-14,26.1l-10.5,56.4c-9.6,12.6-16.5,27.7-19.6,44.3
	L303.6,83.9L303.6,83.9z"/>
<path class="st6" d="M389.1,144.9c0,0-2.8-10.9-12.7-11.3c-10.6-0.3-28.1,21.4-28.1,21.4C373.1,134.3,389.1,144.9,389.1,144.9
	L389.1,144.9z M436.4,155.8c0,0,5-8.3,11.6-5.7c7.1,2.8,12.3,25.9,12.3,25.9C450,151.6,436.5,155.8,436.4,155.8L436.4,155.8z"/>
<path class="st7" d="M386.9,282.6c-14.2-2.4-12.9-20-12.9-20l31.8,5.5C405.8,268.2,401.4,285.2,386.9,282.6z"/>
<ellipse transform="matrix(0.1767 -0.9843 0.9843 0.1767 98.5574 518.7216)" class="st6" cx="359.3" cy="200.4" rx="32.5" ry="19.2"/>
<ellipse transform="matrix(0.1767 -0.9843 0.9843 0.1767 110.959 518.3223)" class="st8" cx="365.3" cy="192.8" rx="3.1" ry="4.5"/>
<ellipse transform="matrix(0.1767 -0.9843 0.9843 0.1767 117.1503 504.7758)" class="st8" cx="360.3" cy="182.4" rx="6" ry="6.8"/>
<ellipse transform="matrix(0.1982 -0.9802 0.9802 0.1982 140.2328 601.5709)" class="st6" cx="437.8" cy="215.1" rx="28.9" ry="15.2"/>
<ellipse transform="matrix(0.205 -0.9788 0.9788 0.205 148.228 599.1332)" class="st8" cx="442.9" cy="208.3" rx="2.7" ry="3.5"/>
<ellipse transform="matrix(0.2977 -0.9547 0.9547 0.2977 118.5476 559.0602)" class="st8" cx="439.2" cy="199" rx="5.3" ry="5.4"/>
<linearGradient id="SVGID_00000099657424101316816220000002472377291189215118_" gradientUnits="userSpaceOnUse" x1="279.0405" y1="320.4379" x2="448.4541" y2="151.0243" gradientTransform="matrix(1 0 0 -1 0 595.8898)">
	<stop  offset="0.1" style="stop-color:#5B5A72"/>
	<stop  offset="0.5" style="stop-color:#B0B0BF"/>
	<stop  offset="0.96" style="stop-color:#F4F4F6"/>
</linearGradient>
<path style="fill:url(#SVGID_00000099657424101316816220000002472377291189215118_);" d="M295.5,336.1c8,0,12.2,3.6,12.6,4
	c3.7,3.3,5.6,7.4,5.6,12.1c0,8-5.5,17.8-17.2,30.4l55.7,106.7c5.2,10,18.5,10,22.8,0l75.4-174.6c3.1-7.4-2.6-15.7-9.2-13.3l-52.5,25
	l-4.9,71.8c-0.4,5.3-5.1,5.3-5.5,0l-5.9-71.8l-100.3-25c-8-2.4-14.8,5.9-11,13.3l14.5,27.7C282.6,338.2,289.3,336.1,295.5,336.1
	L295.5,336.1z"/>
<g class="st10">
	
		<linearGradient id="SVGID_00000144311807489161066370000008135106831541691580_" gradientUnits="userSpaceOnUse" x1="-723.6119" y1="700.2618" x2="-532.2319" y2="891.6418" gradientTransform="matrix(-0.939 -0.344 -0.344 0.939 201.7726 -594.566)">
		<stop  offset="0" style="stop-color:#B0B0BF"/>
		<stop  offset="1" style="stop-color:#F4F4F6"/>
	</linearGradient>
	<path style="fill:url(#SVGID_00000144311807489161066370000008135106831541691580_);" d="M437.6,471.4c-8.8-0.1-12.9-9.2-8.9-20.4
		l73.7-201.1c4.1-11.2,13.1-15.5,19.9-9.8L632,331.4c2.4,2,2.5,8.8,0.1,15.1l-42,114.5c-2.3,6.4-6.7,11.5-9.9,11.5L437.6,471.4
		L437.6,471.4z"/>
</g>
<path class="st12" d="M599,353.6c-3.9,10.7-3.2,21.4,1.6,23.6c4.5,2.1,10.9-4.2,14.6-14.1c3.6-9.9,3.3-20.2-0.9-23.2
	C609.8,336.8,602.9,342.8,599,353.6L599,353.6z M527.8,392.2c-1.7,4.7-0.8,9.1,2,9.8c2.7,0.7,6.2-2.4,7.9-6.9s0.9-8.9-1.8-9.8
	C533.2,384.5,529.5,387.6,527.8,392.2L527.8,392.2z M517.5,420.4c-1.7,4.7-0.7,8.9,2.2,9.3c2.8,0.4,6.4-2.9,8.1-7.4
	c1.7-4.5,0.8-8.6-2-9.3C522.9,412.4,519.2,415.7,517.5,420.4L517.5,420.4z M507.2,448.5c-1.7,4.7-0.6,8.6,2.4,8.8
	c2.9,0.2,6.6-3.4,8.3-7.9s0.8-8.4-2.2-8.8S508.9,443.9,507.2,448.5L507.2,448.5z"/>
<path class="st13" d="M498.2,377.5l25.6,8.1 M479.4,384l40.8,11.4 M486.7,408.9l26.6,5.5 M467.4,416.9l42.3,7.2 M475.2,440.3
	l27.5,2.9 M455.3,449.8l43.9,3.1 M515.6,285.3l82.7,54.3 M509.8,301l84.3,49.8 M562.8,347.6l27.3,14.4 M560.5,385.2l41,15
	 M556.5,396l41.7,13.2 M552.6,406.8l42.4,11.4 M548.6,417.6l43,9.6 M544.7,428.3l43.7,7.8 M540.7,439.1l44.4,6 M562.8,452.2l19,1.7"
	/>
<linearGradient id="SVGID_00000044884545518312280900000014599028897953773499_" gradientUnits="userSpaceOnUse" x1="-3543.9661" y1="8087.8765" x2="-3534.5798" y2="8097.2627" gradientTransform="matrix(0.6959 -0.7181 -0.7181 -0.6959 8911.8604 3378.1167)">
	<stop  offset="0.1" style="stop-color:#5B5A72"/>
	<stop  offset="0.5" style="stop-color:#B0B0BF"/>
	<stop  offset="0.96" style="stop-color:#F4F4F6"/>
</linearGradient>
<path style="fill:none;stroke:url(#SVGID_00000044884545518312280900000014599028897953773499_);stroke-width:3;stroke-linecap:round;stroke-linejoin:round;" d="
	M657.5,282.2l-39.8,10.9"/>
<linearGradient id="SVGID_00000060026681665836249540000002943446005424943510_" gradientUnits="userSpaceOnUse" x1="-3274.1772" y1="8187.7617" x2="-3247.6443" y2="8214.2861" gradientTransform="matrix(0.6522 -0.758 -0.758 -0.6522 8959.8828 3122.9084)">
	<stop  offset="0.1" style="stop-color:#5B5A72"/>
	<stop  offset="0.5" style="stop-color:#B0B0BF"/>
	<stop  offset="0.96" style="stop-color:#F4F4F6"/>
</linearGradient>
<path style="fill:none;stroke:url(#SVGID_00000060026681665836249540000002943446005424943510_);stroke-width:3;stroke-linecap:round;stroke-linejoin:round;" d="
	M632.7,227.6l-31.9,37"/>
<linearGradient id="SVGID_00000032620292630008416890000017623803884052365482_" gradientUnits="userSpaceOnUse" x1="585.7631" y1="7248.4868" x2="616.1904" y2="7278.9028" gradientTransform="matrix(-0.2012 -0.9795 -0.9795 0.2012 7809.415 -635.2734)">
	<stop  offset="0.1" style="stop-color:#5B5A72"/>
	<stop  offset="0.5" style="stop-color:#B0B0BF"/>
	<stop  offset="0.96" style="stop-color:#F4F4F6"/>
</linearGradient>
<path style="fill:none;stroke:url(#SVGID_00000032620292630008416890000017623803884052365482_);stroke-width:3;stroke-linecap:round;stroke-linejoin:round;" d="
	M566.8,212.3l9.8,47.8"/>
</svg>
